images/resources/ram.svg

<svg xmlns="http://www.w3.org/2000/svg" viewBox="0 0 24 24"><g fill="#fff"><path d="M23 9a1 1 0 001-1V5a1 1 0 00-1-1H1a1 1 0 00-1 1v3a1 1 0 001 1 1 1 0 010 2 1 1 0 00-1 1v7a1 1 0 001 1h13a1 1 0 001-1v-3h2v3a1 1 0 001 1h5a1 1 0 001-1v-7a1 1 0 00-1-1 1 1 0 010-2zM2 16h3v2H2zm7 0v2H7v-2zm4 2h-2v-2h2zm6 0v-2h3v2zm3-10.83a3 3 0 000 5.66V14H2v-1.17a3 3 0 000-5.66V6h20z"/><path d="M9 11V9a1 1 0 00-2 0v2a1 1 0 002 0zM13 11V9a1 1 0 00-2 0v2a1 1 0 002 0zM17 11V9a1 1 0 00-2 0v2a1 1 0 002 0z"/></g></svg>

<svg xmlns="http://www.w3.org/2000/svg" viewBox="0 0 24 24"><title>RAM</title><g id="RAM"><path style="fill: rgb(255,255,255); fill-rule: nonzero; opacity: 1;" d="M23,9a1,1,0,0,0,1-1V5a1,1,0,0,0-1-1H1A1,1,0,0,0,0,5V8A1,1,0,0,0,1,9a1,1,0,0,1,0,2,1,1,0,0,0-1,1v7a1,1,0,0,0,1,1H14a1,1,0,0,0,1-1V16h2v3a1,1,0,0,0,1,1h5a1,1,0,0,0,1-1V12a1,1,0,0,0-1-1A1,1,0,0,1,23,9ZM2,16H5v2H2Zm7,0v2H7V16Zm4,2H11V16h2Zm6,0V16h3v2ZM22,7.17a3,3,0,0,0,0,5.66V14H2V12.83A3,3,0,0,0,2,7.17V6H22Z"/><path style="fill: rgb(255,255,255); fill-rule: nonzero; opacity: 1;" d="M9,11V9A1,1,0,0,0,7,9v2A1,1,0,0,0,9,11Z"/><path style="fill: rgb(255,255,255); fill-rule: nonzero; opacity: 1;" d="M13,11V9a1,1,0,0,0-2,0v2A1,1,0,0,0,13,11Z"/><path style="fill: rgb(255,255,255); fill-rule: nonzero; opacity: 1;" d="M17,11V9a1,1,0,0,0-2,0v2A1,1,0,0,0,17,11Z"/></g></svg>
